Obsidian-SemiLight/actions/24s/trash-empty.svg

<svg viewBox="0 0 24 24" xmlns="http://www.w3.org/2000/svg"><path d="m9 4v1 1h1v-1h4v1h1v-1-1zm-4 3v1h14v-1zm2 2v11h1 9v-1-10h-1v10h-8v-10z" fill="#4d4d4d"/></svg>

<svg xmlns="http://www.w3.org/2000/svg" viewBox="0 0 24 24">
  <defs id="defs3051">
    <style type="text/css" id="current-color-scheme">
      .ColorScheme-Text {
        color:#4d4d4d;
      }
      </style>
  </defs>
 <path style="fill:currentColor;fill-opacity:1;stroke:none" 
     d="M 9 4 L 9 5 L 9 6 L 10 6 L 10 5 L 14 5 L 14 6 L 15 6 L 15 5 L 15 4 L 9 4 z M 5 7 L 5 8 L 19 8 L 19 7 L 5 7 z M 7 9 L 7 20 L 8 20 L 17 20 L 17 19 L 17 9 L 16 9 L 16 19 L 8 19 L 8 9 L 7 9 z "
     class="ColorScheme-Text"
     />
</svg>
